!!!!SEGMENT: pl-sa--132-a-iii-32--001-001_haydn-joseph--cassatio-in-b-adagio.krn
!!!cenid: 17xx:565
!!!COM: Haydn, Joseph
!!!COM-rismID: pe55803
!!!CDT: 1732/03/31-1809/05/31
!!!CNT: Austrian
!!!OPR: Cassatio in B
!!!OTL: Adagio
!!!OMV: 001
!!!PDT:
!!!AGN: Secular; Cassation
!!!YEC: Copyright 2022 Narodowy Instytut Fryderyka Chopina (https://polishscores.org)
!!!YEM: License CC-BY-4.0 (https://creativecommons.org/licenses/by/4.0)
!!!SMS-siglum: PL-SA
!!!SMS-shelfmark: 132/A III 32
!!!SMS-shelfwork: 001-001 M
!!!SMS-variant:
!!!SMS-altvar:
!!!NIFC-rismSourceID: 1001077259
!!!NIFC-rismChildID: 1001077259
!!!NIFC-islandoraID: none
!!!URL-pdf-islandora:
!!!URL-scan: https://bc.bdsandomierz.pl/dlibra/publication/1489/edition/1457/content @EN{Scan in the Sandomierz Diocese Digital Library} @PL{Skany w portalu Cyfrowa Biblioteka Diecezjalna w Sandomierzu}
!!!IIIF:
!!!ONB-nifc: UWAGA: części Cassatio: Adagio, Menuet, Presto, Menuet, Presto
!!!AIN: 1 empty 1 viola 2 violn
!!!key:
**kern	**kern	**kern	**kern
*group2	*group1	*group1	*group1
*part4	*part3	*part2	*part1
*staff4	*staff3	*staff2	*staff1
*Iempty	*Iviola	*Ivioln	*Ivioln
*I"Baſso	*I"Viola	*I"Violino Secondo	*I"Violino Primo
*I'b	*I'v-la	*I'vl-no II	*I'vl-no I
*clefF4	*clefC3	*clefG2	*clefG2
*Trd0c0	*	*	*
*k[b-e-]	*k[b-e-a-]	*k[b-e-]	*k[b-e-]
*B-:	*B-:	*B-:	*B-:
*M2/4	*M2/4	*M2/4	*M2/4
*>[AAA1A1BBB1B1CCC1C1DDD1D1EE]	*[AAA1A1BBB1B1CCC1C1DDD1D1EE]	*[AAA1A1BBB1B1CCC1C1DDD1D1EE]	*>[AAA1A1BBB1B1CCC1C1DDD1D1EE]
=1	=1	=1	=1
*>A	*>A	*>A	*>A
!	!	!	!LO:TX:a:B:t=Adagio
!LO:TX:a:B:t=Adagio	!LO:TX:a:B:t=adagio	!LO:TX:a:B:t=adagio	!LO:TX:a:t=problem:caudy po prawej stronie
8r	8r	4.dd\	8.ff\L
8BB-/L	8B-\L	.	.
.	.	.	16bb-\K
8D/	8d\	.	8ff\
8F/J	8f\J	8cc\	8ee-\J
=2	=2	=2	=2
!	!	!LO:TX:a:t=problem:mixed beam	!
8B-\	8b-\	8b-\L	8dd\L
8r	8r	8d/	8b-\
8G\	8g\	8d/	8b-\
8r	8r	8d/J	8b-\J
=3	=3	=3	=3
4E-\	4e-\	8.g/L	8.cc\L
.	.	16e-/K	32ee-\LL
.	.	.	32gg\JJJ
!LO:TX:a:t=problem:mixed beam	!LO:TX:a:t=problem:mixed beam	!	!
8F\L	8f\L	8d/	8b-/L
8FF/J	8F/J	8c/J	8a/J
=4	=4	=4	=4
4BB-/	8B-\L	8B-/L	4b-\
.	8d\	8f/	.
4r	8c\	(8e-/	4r
.	8B-\J	8d/J)	.
=5	=5	=5	=5
8r	8r	4.dd\	8.ff\L
8BB-/L	8B-\L	.	.
.	.	.	16bb-\K
8D/	8d\	.	8ff\
8F/J	8f\J	8cc\	8ee-\J
=6	=6	=6	=6
4B-\	4b-\	8b-\L	8dd\L
.	.	8bb-\	8ddd\
8r	8r	8bb-\	8ddd\
8BB-/	8g\	8een\J	8ddd\J
=7	=7	=7	=7
8AA/L	8f\L	8ff\	16.ccc\LL
.	.	.	32een\K
8D/	8d\	4f/	16.ff\
.	.	.	32b-\JJk
8C/	8c\	.	8a/L
8C/J	8c\J	8en/	8g/J
=8	=8	=8	=8
.	.	8qqe-/	8qqg/
4r	8f\L	2f/	2f/
.	8c\J	.	.
4FF/	4F/	.	.
=9:|!|:	=9:|!|:	=9:|!|:	=9:|!|:
*>A1yy	*>A1yy	*>A1yy	*>A1yy
4r	4r	4r	8.ff\L
.	.	.	16dd\
4D\	[4B-/	4f/	8b-\
.	.	.	8a-X\J
!LO:LB:g=original	!LO:LB:g=original	!	!
=10	=10	=10	=10
4E-\	4B-/]	16f/LL	16a/LL
.	.	16e-/JJ	16g/JJ
.	.	4e-/	4g/
4BBn/	4G/	.	.
.	.	8d/	8f/
!	!	!LO:LB:g=original	!LO:LB:g=original
=11	=11	=11	=11
!	!LO:TX:a:t=problem:mixed beam	!	!LO:TX:a:t=problem:mixed beam
4C/	8G/L	4.c/	8e-/L
.	8e-\	.	8gg\
.	.	.	16qqff/
8E-\L	8e-\	.	8ee-\
.	.	.	16qqdd/
8En\J	8en\J	8g/	8cc\J
=12	=12	=12	=12
.	.	8qqg/	8qqb-/
8F\L	8f\L	4.f/	4a\
8C\J	8c\J	.	.
8FF/	8F/	.	8.r
8r	8r	8r	.
.	.	.	16ff\
=13	=13	=13	=13
8r	8r	8r	16ff\LL
.	.	.	16een\J
8G\L	8g\L	8b-\L	8ee\J
8G\	8g\	8b-\	8ee\L
8G\J	8g\J	8b-\J	16r
.	.	.	16ccc\Jk
=14	=14	=14	=14
8r	8r	8r	16ccc\LL
.	.	.	16ee-X\J
8A\L	8f\L	8cc\L	8ee-\J
8A\	8f\	8cc\	8ee-\
8A\J	8f\J	8cc\J	8r
=15	=15	=15	=15
4B-\	4B-/	8.b-\L	8.dd\L
.	.	16cc\K	16ee-\K
4r	4r	8dd\	8ff\
.	.	8dd\J	8ff\J
=16	=16	=16	=16
4BB-/	4B-/	8.dd\L	8.ff\L
.	.	16b-\K	16bb-\Jk
4r	4r	8dd\J	8ff\L
.	.	8r	16bb-\L
.	.	.	16dd\JJ
=17	=17	=17	=17
*	*2\right	*2\right	*
4E-\	2g\	2b-\	16dd\LL
.	.	.	16cc\JJ
.	.	.	4cc\
4En\	.	.	.
.	.	.	8cc\
=18	=18	=18	=18
4F\	4f\	8.a\L	8.cc\L
.	.	16b-\K	16dd\Jk
4r	4r	8cc\J	8ee-\L
.	.	8r	16r
.	.	.	16gg\Jk
=19	=19	=19	=19
8r	8r	8r	16.ff\LL
.	.	.	32a\K
8G\L	8e-\L	4b-/	16.b-\
.	.	.	32ee-\JJk
8F\	8f\	.	8dd\L
8F\J	8f\J	8a/	8cc\J
=20	=20	=20	=20
.	.	8qqa/	8qqcc/
*	*	*	*2\right
!LO:TX:a:t=problem:mixed beam	!	!	!
8B-\L	8B-/L	2b-/	2b-\
8F\	8F/J	.	.
8BB-/J	4B-/	.	.
!LO:TX:a:t=Da Capo.	!	!	!
8r	.	.	.
!LO:LB:g=original	!LO:LB:g=original	!LO:LB:g=original	!LO:LB:g=original
=21:|!|:	=21:|!|:	=21:|!|:	=21:|!|:
*>B	*>B	*>B	*>B
*	*k[b-e-]	*	*
!LO:TX:a:t=problem:brak w rękopisie	!LO:TX:a:t=I Variatio	!LO:TX:a:t=Variatio Ima	!LO:TX:a:t=Variao 1ma.
2ryy	(16d/LL	16f/LL	2ff\
.	16B-/)	16d/	.
.	16B-`/	16d/	.
.	16B-`/JJ	16d/JJ	.
.	16B-`/LL	16d/LL	.
.	16B-`/	16d/	.
.	(16c/	16e-/	.
.	16B-/JJ)	16c/JJ	.
=22	=22	=22	=22
2ryy	(16d/LL	16f/LL	8.ff\L
.	16B-/)	16d/	.
.	16B-`/	16d/	.
.	16B-`/JJ	16d/JJ	32gg\LL
.	.	.	32ff\JJJ
.	16B-`/LL	16d/LL	8bb-\
.	16B-`/	16d/	.
.	16B-`/	16d/	8r
.	16B-`/JJ	16d/JJ	.
=23	=23	=23	=23
2ryy	(16e-\LL	16g/LL	8r
.	16c\)	16e-/	.
.	16c`\	16e-/	4r
.	16c`\JJ	16e-/JJ	.
.	(16c\LL	16e-/LL	.
.	16A\)	16c/	.
!	!	!	!LO:TX:a:t=problem:mixed beam
.	16A`\	16c/	(16f/LL
.	16G`\JJ	16c/JJ	16ee-\JJ)
=24	=24	=24	=24
2ryy	(16d/LL	16d/LL	8dd\
.	16D/)	16B-/	.
.	16D`/	16B-/	8r
.	16D`/JJ	16B-/JJ	.
.	16C/LL	16A/LL	4r
.	16D/	16B-/	.
.	16D/	16B-/	.
.	16D/JJ	16B-/JJ	.
!	!LO:LB:g=original	!	!
=25	=25	=25	=25
2ryy	(16dd\LL	16ff\LL	2ff\
.	16b-\)	16dd\	.
.	16b-`\	16dd\	.
.	16b-`\JJ	16dd\JJ	.
.	(16dd\LL	(16ff\LL	.
.	16b-\)	16dd\)	.
.	(16cc\	(16ee-\	.
.	16a\JJ)	16cc\JJ)	.
=26	=26	=26	=26
2ryy	4b-`\	16dd\LL	16ff\LL
.	.	16b-\	16ddd\
.	.	16b-\	16ddd\
.	.	16b-\JJ	16ddd\JJ
.	8r	16b-/LL	16ddd\LL
.	.	16g/	16een\
.	8c\	16g/	16ee\
.	.	16g/JJ	16ee\JJ
!	!	!LO:LB:g=original	!
=27	=27	=27	=27
2ryy	8c\L	16f/LL	(16ff\LL
.	.	16f/	16cc\)
.	8d\	16f/	(16ff\
.	.	16f/JJ	16b-\JJ)
.	8c\	16f/LL	(16a/LL
.	.	16A/	16f/)
.	8c\J	16B-/	(16g/
.	.	16G/JJ	16en/JJ)
=28	=28	=28	=28
.	.	8qqG/	8qqen/
2ryy	8F/L	2A/	2f/
.	8c/J	.	.
.	4F/	.	.
=29:|!|:	=29:|!|:	=29:|!|:	=29:|!|:
*>B1yy	*>B1yy	*>B1yy	*>B1yy
2ryy	(16B-\LL	(16d/LL	2b-\
.	16d\)	16f/)	.
.	16d`\	16f`/	.
.	16d`\JJ	16f`/JJ	.
.	(16d\LL	(16f/LL	.
.	16f\)	16a-X/)	.
.	16f`\	16a-`/	.
.	16f`\JJ	16a-`/JJ	.
!	!	!	!LO:LB:g=original
=30	=30	=30	=30
2ryy	(16f\LL	(16a/LL	4b-\
.	16e-\)	16g/)	.
.	16e-`\	16g`/	.
.	16e-`\JJ	16g`/JJ	.
.	(16e-\LL	(16g/LL	16b-\LL
.	16d\)	16f/)	16ff\
.	16d`\	16f`/	16ff\
.	16d`\JJ	16f`/JJ	16ff\JJ
=31	=31	=31	=31
2ryy	2c\	16e-/LL	16gg\LL
.	.	16g/	16ee-\
.	.	16g/	16ee-\
.	.	16g/JJ	16ee-\JJ
.	.	16g/LL	16gg\LL
.	.	16g/	16cc\
.	.	16g/	16cc\
.	.	16g/JJ	16b-\JJ
!	!LO:LB:g=original	!	!
=32	=32	=32	=32
.	.	8qqg/	8qqb-/
2ryy	4.c\	2f/	2a/
.	8r	.	.
=33	=33	=33	=33
2ryy	16B-/LL	16b-/LL	4r
.	16B-/	16en/	.
.	16B-/	16e/	.
.	16B-/JJ	16e/JJ	.
.	16B-/LL	8e/	16bb-\LL
.	16B-/	.	16een\
.	16B-/	8r	16ee\
.	16B-/JJ	.	16ee\JJ
=34	=34	=34	=34
2ryy	(16A/LL	16cc/LL	8ff\
.	16c/)	16e-X/	.
.	16c`/	16e-/	8r
.	16c`/JJ	16e-/JJ	.
.	16c/LL	8e-/	16ccc\LL
.	16c/	.	16ee-X\
.	16c/	8r	16ee-\
.	16c/JJ	.	16ee-\JJ
!	!	!LO:LB:g=original	!
=35	=35	=35	=35
2ryy	(16d/LL	16f/LL	8dd\
.	16B-/)	16d/	.
.	16B-`/	16d/	8r
.	16B-`/JJ	16d/JJ	.
!	!	!	!LO:TX:a:t=problem:mixed beam
.	16B-/LL	16d/LL	16dd\LL
.	16B-/	16d/	16f/
.	16B-/	16d/	16f/
.	16B-/JJ	16d/JJ	16f/JJ
=36	=36	=36	=36
2ryy	(16d/LL	16f/LL	8f/
.	16B-/)	16d/	.
.	16B-`/	16d/	8r
.	16B-`/JJ	16d/JJ	.
.	16B-/LL	16d/LL	16bb-\LL
.	16B-/	16d/	16ff\
.	16B-/	16d/	16ff\
.	16B-/JJ	16d/JJ	16ff\JJ
=37	=37	=37	=37
2ryy	16g\LL	16e-/LL	16gg\LL
.	16g\	16b-/	16cc\
.	16g\	16b-/	16cc\
.	16g\JJ	16b-/JJ	16cc\JJ
.	16g\LL	16b-/LL	16cc\LL
.	16g\	16b-/	16cc\
.	16g\	16b-/	16cc\
.	16g\JJ	16b-/JJ	16cc\JJ
!	!LO:LB:g=original	!	!LO:LB:g=original
=38	=38	=38	=38
2ryy	4f\	16a\LL	16cc\LL
.	.	16cc\	16ee-\
.	.	16cc\	16ee-\
.	.	16cc\JJ	16ee-\JJ
.	4r	16cc\LL	16ee-\LL
.	.	16ee-\	16gg\
.	.	16ee-\	16gg\
.	.	16ee-\JJ	16aa\JJ
=39	=39	=39	=39
2ryy	8r	16dd\LL	16bb-\LL
.	.	16b-\	16b-\
.	8g\L	16b-\	16b-\
.	.	16b-\JJ	16ee-\JJ
.	8f\	8b-T\L	8dd\L
.	8f\J	8a\J	8cc\J
=40	=40	=40	=40
.	.	8qqa\	8qqcc/
2ryy	8B-/L	2b-\	2b-\
.	8F/J	.	.
.	4B-/	.	.
!LO:LB:g=original	!LO:LB:g=original	!LO:LB:g=original	!LO:LB:g=original
=41:|!|:	=41:|!|:	=41:|!|:	=41:|!|:
*>C	*>C	*>C	*>C
!	!LO:TX:a:t=2da	!LO:TX:a:t=II	!LO:TX:a:t=2va.
2ryy	4B-/	4e-/ 4b-	16.B-/LL
.	.	.	32f/JJk
.	.	.	16.f/LL
.	.	.	32en/L
.	16r	16r	32f/JJJ
.	.	.	8b-\
.	16dd\LL	16ff\LL	.
.	16cc\	16ee-\	.
.	.	.	16.r
.	16a\JJ	16cc\JJ	.
=42	=42	=42	=42
2ryy	8b-\	8dd\	16.B-/LL
.	.	.	32f/JJk
.	8r	8r	16.f/LL
.	.	.	32e-/L
.	16r	16r	32f/JJJ
.	.	.	8b-\
.	16b-\LL	16dd\LL	.
.	16dd\	16bb-\	.
.	.	.	16.r
.	16d\JJ	16b-\JJ	.
=43	=43	=43	=43
2ryy	8e-\	8cc\	16.e-/LL
.	.	.	32cc/JJk
.	8r	8r	16.cc\LL
.	.	.	32bn\L
.	16r	16r	32cc\JJJ
.	.	.	8ee-\
.	16e-\LL	16cc/LL	.
.	16c\	16a/	.
.	.	.	16.r
.	16A\JJ	16e-/JJ	.
=44	=44	=44	=44
2ryy	8B-/	8d/	16.B-/LL
.	.	.	32f/JJk
.	8r	8r	16.f/LL
.	.	.	32e-/L
.	16r	16r	32f/JJJ
.	.	.	8b-\
.	16d\LL	16f/LL	.
.	16e-\	16g/	.
.	.	.	16.r
.	16d\JJ	16a/JJ	.
=45	=45	=45	=45
2ryy	8d\	8b-\	16.B-/LL
.	.	.	32f/JJk
.	8r	8r	16.f/LL
.	.	.	32e-/L
.	16r	16r	32f/JJJ
.	.	.	8b-\
.	16dd\LL	16ff\LL	.
.	16cc\	16ee-\	.
.	.	.	16.r
.	16a\JJ	16cc\JJ	.
=46	=46	=46	=46
2ryy	8b-\	8dd\	16.B-/LL
.	.	.	32f/JJk
.	8r	8r	16.f/LL
.	.	.	32en/L
.	16r	16r	32f/JJJ
.	.	.	8dd\
!	!LO:TX:a:t=problem:mixed beam	!	!
.	16G/LL	16bb-\LL	.
.	16g\	16een\	.
.	.	.	16.r
.	16dn\JJ	16gg\JJ	.
!	!LO:LB:g=original	!	!LO:LB:g=original
=47	=47	=47	=47
2ryy	8f\	16ff\LL	16.A/LL
.	.	16cc\	.
.	.	.	32f/JJk
.	8r	16ff\	16.f/LL
.	.	16b-\JJ	.
.	.	.	32e-/L
.	16c/LL	16a/LL	32f/JJJ
.	.	.	8c/
.	16A/	16f/	.
.	16B-/	16g/	.
.	.	.	16.r
.	16G/JJ	16en/JJ	.
!	!	!LO:LB:g=original	!
=48	=48	=48	=48
2ryy	16A`/LL	16f/LL	16.A/LL
.	16A`/	16c/	.
.	.	.	32c/JJk
.	(16B-/	16d/	16.c/LL
.	16En/JJ)	16B-/JJ	.
.	.	.	32B-/L
.	8F/	8A/	32c/JJJ
.	.	.	8f/
.	8r	8r	.
.	.	.	16.r
=49:|!|:	=49:|!|:	=49:|!|:	=49:|!|:
*>C1yy	*C1yy	*>C1yy	*>C1yy
2ryy	4B-/	4d/ 4b-	16.d/LL
.	.	.	32b-/JJk
.	.	.	16.b-T\LL
.	.	.	32a\L
.	16r	16r	32b-\JJJ
.	.	.	8ff\
.	16f\LL	16aa-X\LL	.
.	16b-\	16ff\	.
.	.	.	16.r
.	16f\JJ	16aa-\JJ	.
=50	=50	=50	=50
2ryy	8e-\	8gg\	16.e-/LL
.	.	.	32b-/JJk
.	8r	8r	16.b-T\LL
.	.	.	32a\L
.	16r	16r	32b-\JJJ
.	.	.	8gg\
.	16g\LL	16ddd\LL	.
!	!LO:TX:a:t=problem:mixed beam	!	!
.	16G/	16dd\	.
.	.	.	16.r
.	16d/JJ	16ff\JJ	.
=51	=51	=51	=51
2ryy	8c\	8ee-\	16.e-/LL
.	.	.	16cc/JJ
.	8r	8r	.
.	.	.	16.cc\LL
.	16r	16r	32bn\L
.	.	.	32cc\JJJ
.	16c\LL	16ee-\LL	8gg\
.	16G\	16cc\	.
.	16g\JJ	16b-\JJ	16r
=52	=52	=52	=52
2ryy	8f\	8a/	16A/LL
.	.	.	16c/JJ
.	8r	8r	16.c/LL
.	.	.	32B-/L
.	16r	16r	32c/JJJ
.	.	.	8f/
.	16f\LL	16a\LL	.
.	16g\	16b-\	.
.	.	.	16.r
.	16a\JJ	16cc\JJ	.
!	!	!	!LO:LB:g=original
=53	=53	=53	=53
2ryy	8g\	8b-\	16.G/LL
.	.	.	32en/JJk
.	8r	8r	16.e/LL
.	.	.	32d/L
.	16r	16r	32e/JJJ
.	.	.	8cc\
.	16en\LL	16bb-\LL	.
.	16B-\	16gg\	.
.	.	.	16.r
.	16b-\JJ	16een\JJ	.
!	!LO:LB:g=original	!	!
=54	=54	=54	=54
2ryy	8a\	8ff\	16.A/LL
.	.	.	32f/JJk
.	8r	8r	16.f/LL
.	.	.	32en/L
.	16r	16r	32f/JJJ
.	.	.	8ee-X\
.	16e-X\LL	16ccc\LL	.
.	16c\	16aa\	.
.	.	.	16.r
.	16cc\JJ	16ee-X\JJ	.
!	!	!LO:LB:g=original	!
=55	=55	=55	=55
2ryy	8b-\	8dd\	16.B-/LL
.	.	.	32f/JJk
.	8r	8r	16.f/LL
.	.	.	32e-/L
.	16r	16r	32f/JJJ
.	.	.	8b-\
.	16dd\LL	16ff\LL	.
.	16cc\	16ee-\	.
.	.	.	16.r
.	16a\JJ	16cc\JJ	.
=56	=56	=56	=56
2ryy	8b-\	8dd\	16.B-/LL
.	.	.	32f/JJk
.	8r	8r	16.f/LL
.	.	.	32e-/L
.	16r	16r	32f/JJJ
.	.	.	8b-\
.	16d\LL	16ff\LL	.
.	16B-\	16bb-\	.
.	.	.	16.r
.	16d\JJ	16dd\JJ	.
=57	=57	=57	=57
2ryy	8e-\	8cc\	16.e-/LL
.	.	.	32cc/JJk
.	8r	8r	16.ccT\LL
.	.	.	32bn\L
.	16r	16r	32cc\JJJ
.	.	.	8gg\
!	!LO:TX:a:t=problem:mixed beam	!LO:TX:a:t=problem:mixed beam	!
.	16B-/LL	16gg\LL	.
.	16G/	16bb-\	.
.	.	.	16.r
.	16g\JJ	16b-/JJ	.
=58	=58	=58	=58
2ryy	8f\	8a/	16.f/LL
.	.	.	32cc/JJk
.	8r	8r	16.cc\LL
.	.	.	32b-\L
.	16r	16r	32cc\JJJ
.	.	.	8ee-\
.	16f\LL	16ccc\LL	.
.	16cc\	16aa\	.
.	.	.	16.r
.	16a\JJ	16ee-\JJ	.
!	!	!	!LO:LB:g=original
=59	=59	=59	=59
2ryy	8b-\L	16dd\LL	16.d/LL
.	.	16bb-\	.
.	.	.	32b-/JJk
.	8d\J	16b-\	16.b-\LL
.	.	16ee-\JJ	.
.	.	.	32a\L
.	16f\LL	16dd\LL	32b-\JJJ
.	.	.	8f/
.	16d\	16b-\	.
.	16e-\	16cc\	.
.	.	.	16.r
.	16c\JJ	16a\JJ	.
=60	=60	=60	=60
2ryy	16d\LL	16b-/LL	16B-/LL
.	16d\	16f/	16f/JJ
.	16c\	16e-/	16.f/LL
.	16A\JJ	16c/JJ	.
.	.	.	32e-/L
.	4B-/	8.B-/	32f/JJJ
.	.	.	8b-\
.	.	.	16.r
.	.	16r	.
!	!LO:LB:g=original	!LO:LB:g=original	!LO:LB:g=original
=61:|!|:	=61:|!|:	=61:|!|:	=61:|!|:
*>D	*>D	*>D	*>D
!	!LO:TX:a:t=3tio	!LO:TX:a:t=III	!LO:TX:a:t=3
2ryy	4d\	4f/	2r
.	8.cT\L	8.e-T/L	.
.	32B-\LL	32d/LL	.
.	32c\JJJ	32e-/JJJ	.
=62	=62	=62	=62
*	*	*	*Xtuplet
2ryy	8B-/	8d/	24b-`\LL
.	.	.	(24bb-\
.	.	.	24aa\JJ)
.	8r	8r	24gg`\LL
.	.	.	(24ff\
.	.	.	24ee-\JJ)
.	8d\	8b-\	24dd`\LL
.	.	.	(24cc\
.	.	.	24b-\JJ)
.	8r	8r	24a`/LL
.	.	.	(24g/
.	.	.	24f/JJ)
=63	=63	=63	=63
2ryy	8.e-T\L	8.gT/L	4e-/
.	32d\LL	32f/LL	.
.	32c\JJJ	32e-/JJJ	.
.	8B-/L	8d/L	4r
.	8A/J	8c/J	.
=64	=64	=64	=64
2ryy	4B-/	4d/	24b-\LL
.	.	.	24bb-\
.	.	.	24aa\JJ
.	.	.	24gg\LL
.	.	.	24ff\
.	.	.	24ee-\JJ
.	4r	4r	24dd\LL
.	.	.	24cc\
.	.	.	24b-\JJ
.	.	.	24a/LL
.	.	.	24g/
.	.	.	24f/JJ
=65	=65	=65	=65
2ryy	4d\	4f/	4e-/
.	8.cT\L	8.e-T/L	4r
.	32B-\LL	32d/LL	.
.	32c\JJJ	32e-/JJJ	.
=66	=66	=66	=66
2ryy	4B-/	4d/	24dd\LL
.	.	.	24ddd\
.	.	.	24ddd\JJ
.	.	.	24ddd\LL
.	.	.	24ddd\
.	.	.	24ddd\JJ
.	8r	8r	24ddd\LL
.	.	.	24ccc\
.	.	.	24bb-\JJ
.	8g\	[8cc\	(24eeen\LL
.	.	.	24ddd\
.	.	.	24ccc\JJ)
=67	=67	=67	=67
2ryy	8g\L	8cc\]	24fff\LL
.	.	.	24fff\
.	.	.	24fff\JJ
.	8d\	4ff\	24fff\LL
.	.	.	24ddd\
.	.	.	24bb-\JJ
.	8c\	.	8aa\L
.	8c\J	8een\	8gg\J
!	!	!	!LO:LB:g=original
=68	=68	=68	=68
2ryy	8f\L	4ff\	4ff\
.	8c\J	.	.
.	4F/	4r	4r
!	!	!LO:LB:g=original	!
=69:|!|:	=69:|!|:	=69:|!|:	=69:|!|:
*>D1yy	*>D1yy	*>D1yy	*>D1yy
2ryy	4r	4r	24ff\LL
.	.	.	24b-\
.	.	.	24b-\JJ
.	.	.	24d/LL
.	.	.	24b-/
.	.	.	24b-/JJ
.	4f\	4a-X/	24ff\LL
.	.	.	24b-\
.	.	.	24b-\JJ
.	.	.	24aa-X\LL
.	.	.	24b-\
.	.	.	24b-\JJ
!	!LO:LB:g=original	!	!
=70	=70	=70	=70
2ryy	4e-\	4g/	4gg\
.	8.dt\L	8.fT/L	4r
.	32c\LL	32e-/LL	.
.	32d\JJJ	32f/JJJ	.
=71	=71	=71	=71
2ryy	8c\	8e-/	(24g\LL
.	.	.	24cc\
.	.	.	24dd\JJ)
.	8r	8r	(24ee-\LL
.	.	.	24dd\
.	.	.	24cc\JJ)
.	8a\	8r	(24gg\LL
.	.	.	24ff\
.	.	.	24ee-\JJ)
.	8r	8g/	(24dd\LL
.	.	.	24cc\
.	.	.	24b-\JJ)
=72	=72	=72	=72
.	.	.	8qqb-/
2ryy	4.c\	(2f>/	2a/
.	8r	.	.
=73	=73	=73	=73
2ryy	2B-/	2en/)	(24bb-\LL
.	.	.	24gg\
.	.	.	24een\JJ)
.	.	.	(24cc\LL
.	.	.	24b-\
.	.	.	24g\JJ)
.	.	.	8en/
.	.	.	8r
=74	=74	=74	=74
*	*	*^	*
2ryy	2F/	2e-X/	2c\	24ccc\LL
.	.	.	.	24aa\
.	.	.	.	24ff\JJ
.	.	.	.	24ee-X\LL
.	.	.	.	24cc\
.	.	.	.	24a\JJ
.	.	.	.	8e-/
.	.	.	.	8r
*	*	*v	*v	*
!	!	!	!LO:LB:g=original
=75	=75	=75	=75
2ryy	8.B-/L	8.d/L	2r
.	16c/Jk	16e-/Jk	.
.	8d\L	8f/L	.
.	8d\J	8f/J	.
=76	=76	=76	=76
2ryy	4d\	4f/	(24g\LL
.	.	.	24bb-\
.	.	.	24aa\JJ)
.	.	.	(24gg\LL
.	.	.	24ff\
.	.	.	24ee-\JJ)
.	4r	4r	(24dd\LL
.	.	.	24cc\
.	.	.	24b-\JJ)
.	.	.	(24a/LL
.	.	.	24g/
.	.	.	24f/JJ)
=77	=77	=77	=77
!	!	!	!LO:TX:a:t=problem:mixed beam
2ryy	2b-\	[2cc\	24e-/LL
.	.	.	24gg\
.	.	.	24gg\JJ
.	.	.	24gg\LL
.	.	.	24gg\
.	.	.	24gg\JJ
.	.	.	24gg\LL
.	.	.	24ff\
.	.	.	24een\JJ
.	.	.	24dd\LL
.	.	.	24cc\
.	.	.	24b-\JJ
=78	=78	=78	=78
!	!	!	!LO:TX:a:t=problem:mixed beam
2ryy	4a\	4cc\]	24a/LL
.	.	.	24ccc\
.	.	.	24ccc\JJ
.	.	.	24ccc\LL
.	.	.	24ccc\
.	.	.	24ccc\JJ
.	4r	4r	24ccc\LL
.	.	.	24bb-\
.	.	.	24aa\JJ
.	.	.	24gg\LL
.	.	.	24ff\
.	.	.	24ee-\JJ
=79	=79	=79	=79
2ryy	8r	8r	24dd\LL
.	.	.	24ee-\
.	.	.	24ff\JJ
!	!LO:TX:a:t=problem:mixed beam	!	!
.	8g\L	4B-/	24b-\LL
.	.	.	24ee-\
.	.	.	24cc\JJ
.	8f\	.	4ccT\
.	8F/J	8A/	.
=80	=80	=80	=80
2ryy	8B-/L	4B-/	4b-\
.	8F/J	.	.
.	4B-/	4r	4r
!	!LO:LB:g=original	!LO:LB:g=original	!LO:LB:g=original
=81:|!|:	=81:|!|:	=81:|!|:	=81:|!|:
*>E	*>E	*>E	*>E
!	!LO:TX:a:t=4to	!LO:TX:a:t=IV	!LO:TX:a:t=4.
2ryy	8r	4.dd\	8.ff\L
.	8B-\L	.	.
.	.	.	16bb-\K
.	8d\	.	8ff\
.	8f\J	8cc\	8ee-\J
=82	=82	=82	=82
!	!	!LO:TX:a:t=problem:mixed beam	!
2ryy	8b-\	8b-\L	8dd\L
.	8r	8d/	8b-\
.	8g\	8d/	8b-\
.	8r	8d/J	8b-\J
=83	=83	=83	=83
2ryy	4e-\	8.g/L	(8.cc\L
.	.	16e-/K	32ee-\LL
.	.	.	32gg\JJJ)
!	!LO:TX:a:t=problem:mixed beam	!	!
.	8f\L	8d/	8b-\L
.	8F/J	8c/J	8a\J
=84	=84	=84	=84
2ryy	8B-\L	8B-/L	4b-\
.	8d\	8f/	.
.	8c\	8e-/	4r
.	8B-\J	8d/J	.
=85	=85	=85	=85
2ryy	8r	4.dd\	8.ff\L
.	8B-\L	.	.
.	.	.	16bb-\K
.	8d\	.	8ff\
.	8f\J	8cc\	8ee-\J
=86	=86	=86	=86
2ryy	4b-\	8b-\L	8dd\L
.	.	8bb-\	8ddd\
.	8r	8bb-\	8ddd\
.	8g\	8een\J	8ddd\J
=87	=87	=87	=87
2ryy	8f\L	8ff\	16.ccc\LL
.	.	.	32een\K
.	8d\	4f/	16.ff\
.	.	.	32b-\JJk
.	8c\	.	8a/L
.	8c\J	8en/	8g/J
=88	=88	=88	=88
.	.	8qqe-/	8qqg/
2ryy	8f\L	2f/	2f/
.	8c\J	.	.
.	4F/	.	.
=89	=89	=89	=89
2ryy	8r	4.dd\	(32ff\LLL
.	.	.	32bb-\
.	.	.	32aa\
.	.	.	32bb-\JJJ)
.	8B-\L	.	(32ddd\LLL
.	.	.	32bb-\
.	.	.	32aa\
.	.	.	32bb-\JJJ)
.	8d\	.	8ff\L
.	8f\J	8cc\	8ee-\J
!	!LO:LB:g=original	!	!
=90	=90	=90	=90
!	!	!LO:TX:a:t=problem:mixed beam	!
2ryy	8b-\	8b-\L	8dd\L
.	8r	8d/	8b-\
.	8g\	8d/	8b-\
.	8r	8d/J	8bn\J
!	!	!LO:LB:g=original	!LO:LB:g=original
=91	=91	=91	=91
2ryy	4e-\	4g/	(32cc\LLL
.	.	.	32bn\
.	.	.	32dd\
.	.	.	32cc\JJJ)
.	.	.	4ee-\
.	4c\	4a/	.
.	.	.	32dd\LLL
.	.	.	32cc\
.	.	.	32b\
.	.	.	32a\JJJ
=92	=92	=92	=92
.	.	.	8qqa/
2ryy	16d\LL	16b-/LL	4b-\
.	16d\	16f/	.
.	16d\	16f/	.
.	16d\JJ	16f/JJ	.
.	16d\LL	16f/LL	4r
.	16c\	16e-/	.
.	16c\	16e-/	.
.	16B-\JJ	16d/JJ	.
=93	=93	=93	=93
2ryy	8B-\L	4.dd\	(32dd\LLL
.	.	.	32bb-\
.	.	.	32aa\
.	.	.	32bb-\JJJ)
.	8B-\	.	(32ddd\LLL
.	.	.	32bb-\
.	.	.	32aa\
.	.	.	32bb-\JJJ)
.	8d\	.	8ff\L
.	8f\J	8cc\	8ee-\J
=94	=94	=94	=94
2ryy	4b-\	16b-\LL	16dd\LL
.	.	16bb-\	16ddd\
.	.	16bb-\	16ddd\
.	.	16bb-\JJ	16ddd\JJ
.	8r	16gg\LL	16ddd\LL
.	.	16gg\	16ddd\
.	8g\	16een\	16ddd\
.	.	16ee\JJ	16ddd\JJ
=95	=95	=95	=95
2ryy	8f\L	8ff\	32ccc\LLL
.	.	.	(32een\
.	.	.	32ff\
.	.	.	32gg\JJJ)
.	8d\	4f/	32ff\LLL
.	.	.	32dd\
.	.	.	32cc\
.	.	.	32b-\JJJ
.	8c\	.	8a/L
.	8c\J	8en/	8g/J
=96	=96	=96	=96
.	.	8qqe-/	8qqg/
2ryy	8f\L	2f/	2f/
.	8d\J	.	.
.	4F/	.	.
=97	=97	=97	=97
2ryy	4r	8g/	8.ff\L
.	.	8r	.
.	.	.	16dd\K
.	4B-/	4f/	8b-\
.	.	.	8a-X\J
=98	=98	=98	=98
2ryy	4B-/	16f/LL	16a/LL
.	.	16e-/JJ	16g/JJ
.	.	4e-/	4g/
.	4G/	.	.
!	!	!	!LO:LB:g=original
.	.	8d/	8f/
=99	=99	=99	=99
!	!	!	!LO:TX:a:t=problem:mixed beam
2ryy	8G/L	4.c/	8e-/L
.	8e-\	.	8gg\
.	.	.	8qqff/
.	8e-\	.	8ee-\
.	.	.	8qqdd/
.	8en\J	8g/	8cc\J
=100	=100	=100	=100
.	.	8qqg/	8qqb-/
2ryy	8f\L	4.f/	4.a\
.	8c\J	.	.
.	4F/	.	.
.	.	8r	16r
.	.	.	16ff\
!	!LO:LB:g=original	!LO:LB:g=original	!
=101	=101	=101	=101
2ryy	8r	8r	(16ff\LL
.	.	.	16een\J)
.	8g\L	8b-\L	8ee`\J
.	8g\	8b-\	8ee\L
.	8g\J	8b-\J	16r
.	.	.	16ccc\Jk
=102	=102	=102	=102
2ryy	8r	8r	16ccc\LL
.	.	.	16ee-X\J
.	8f\L	8cc\L	8ee-\J
.	8f\	8cc\	8ee-\
.	8f\J	8cc\J	8r
=103	=103	=103	=103
2ryy	4B-/	8.b-\L	8.dd\L
.	.	16cc\K	16ee-\K
.	4r	8dd\	8ff\
.	.	8dd\J	8ff\J
=104	=104	=104	=104
2ryy	4B-/	8.dd\L	8.dd\L
.	.	16cc\K	16bb-\Jk
.	4r	8dd\J	8ff\L
.	.	8r	16bb-\L
.	.	.	16dd\JJ
=105	=105	=105	=105
2ryy	2g\	2b-\	16dd\LL
.	.	.	16cc\JJ
.	.	.	4cc\
.	.	.	8cc\
=106	=106	=106	=106
2ryy	4f\	8.a\L	8.cc\L
.	.	16b-\K	16dd\Jk
.	4r	8cc\J	8ee-\L
.	.	8r	16r
.	.	.	16gg\Jk
!	!	!	!LO:PB:g=original
=107	=107	=107	=107
2ryy	8r	8r	16.ff\LL
.	.	.	32a\K
.	8e-\L	4b-\	16.b-\
.	.	.	32ee-\JJk
.	8f\	.	8dd\L
.	8g\J	8a\	8ccT\J
=108	=108	=108	=108
.	.	8qqa/	8qqcc/
2ryy	8B-/L	2b-\	2b-\
.	8F/J	.	.
.	4B-/	.	.
=109	=109	=109	=109
2ryy	4r	4r	32ff\LLL
.	.	.	32ee-\
.	.	.	(32dd\
.	.	.	32ee-\JJJ)
.	.	.	(32dd\LLL
.	.	.	32ee-\
.	.	.	32ff\
.	.	.	32gg\JJJ)
.	4B-/	[4f/	16aa-X\LL
.	.	.	16ff\
.	.	.	16dd\
.	.	.	16a-X\JJ
=110	=110	=110	=110
2ryy	4B-/	16f/LL]	16a/LL
.	.	16e-/JJ	16g/JJ
.	.	4e-/	4g/
.	4G/	.	.
.	.	8d/	8f/
!	!	!LO:LB:g=original	!
=111	=111	=111	=111
!	!	!	!LO:TX:a:t=problem:mixed beam
2ryy	16G\LL	4.c/	16e-/LL
.	16e-\	.	16gg\
.	16e-\	.	16gg\
.	16e-\JJ	.	16gg\JJ
.	8e-\L	.	16gg\LL
.	.	.	16ee-\
.	8en\J	8g/	16cc\
.	.	.	16b-\JJ
!	!LO:LB:g=original	!	!
=112	=112	=112	=112
!	!LO:TX:a:t=problem:takty niewidoczne	!	!
.	.	8qqg/	.
2ryy	2ryy	4.f/	4a/
.	.	.	8r
.	.	8r	16r
.	.	.	16ff\
=113	=113	=113	=113
2ryy	2ryy	16r	32gg\LLL
.	.	.	32ff\
.	.	16b-\LL	(32een\
.	.	.	32ff\JJJ)
.	.	16b-\	16ee\LL
.	.	16b-\JJ	16ee\JJ
.	.	16b-\LL	8ee\L
.	.	16b-\	.
.	.	16b-\	16r
.	.	16b-\JJ	16ccc\Jk
!	!	!	!LO:LB:g=original
=114	=114	=114	=114
2ryy	16r	16r	32ccc\LLL
.	.	.	32aa\
.	16g\LL	16cc\LL	32ddd\
.	.	.	32ccc\JJJ
.	16g\	16cc\	32eee-\LLL
.	.	.	32ccc\
.	16g\JJ	16cc\JJ	32aa\
.	.	.	32ff\JJJ
.	16g\LL	16cc\LL	8ee-\
.	16g\	16cc\	.
.	16g\	16cc\	8r
.	16g\JJ	16cc\JJ	.
=115	=115	=115	=115
2ryy	16r	8.b-\L	8.dd\L
.	16f\LL	.	.
.	16f\	.	.
.	16f\JJ	16cc\K	16ee-\K
.	16f\LL	8dd\	8ff\
.	16f\	.	.
.	16f\	8dd\J	8ff\J
.	16f\JJ	.	.
=116	=116	=116	=116
2ryy	4B-/	8dd\	8.bb-\L
.	.	8r	.
.	.	.	32aa\LL
.	.	.	32gg\JJJ
.	4r	4r	8ff\L
.	.	.	16bb-\L
.	.	.	16dd\JJ
=117	=117	=117	=117
2ryy	2g\	2b-\	16dd\LL
.	.	.	16cc\JJ
.	.	.	4cc\
.	.	.	8cc\
=118	=118	=118	=118
2ryy	4f\	32a`\LLL	(32cc\LLL
.	.	(32g\	32bn\
.	.	32a\	32cc\)
.	.	32b-\JJJ)	32dd`\JJJ
.	.	32cc`\LLL	(32ee-\LLL
.	.	(32b-\	32dd\
.	.	32cc\	32ee-\)
.	.	32dd\JJJ)	32ff`\JJJ
!	!	!LO:LB:g=original	!
.	4r	32ee-`\LLL	(32gg\LLL
.	.	(32dd\	32ff\
.	.	32ee-\	32gg\)
.	.	32ff\JJJ)	32aa`\JJJ
.	.	32gg`\LLL	(32bb-\LLL
.	.	(32ff\	32aa\
.	.	32gg\	32bb-\)
.	.	32aa\JJJ)	32ccc`\JJJ
=119	=119	=119	=119
2ryy	8r	8bb-\L	8ddd\L
.	8e-\L	16r	16r
.	.	16b-\Jk	16ee-\Jk
.	8f\	8b-\L	8dd\L
.	8f\J	8a\J	8cc\J
=120	=120	=120	=120
.	.	8qqa/	.
2ryy	8B-/L	4b-\	4b-\
.	8F/J	.	.
.	4B-/	4r	4r
=:|!	=:|!	=:|!	=:|!
*-	*-	*-	*-
!!!system-decoration: [(g1)]{g2}
!!!ENC: Anna Matuszewska
!!!END: 2020-08-12
